svg/chips-16.svg

<svg xmlns="http://www.w3.org/2000/svg" width="16" height="16" fill="none" viewBox="0 0 16 16"><path stroke="currentColor" stroke-linecap="round" stroke-linejoin="round" d="M7.5 1.5v-1m5 1v-1m3 8h-1m1-5h-1m-9 5h-1m1-5h-1m3 8v-1m5 1v-1m-11 2h-1m1-5h-1m3 8v-1m5 1v-1m-5-9h-.9a1.1 1.1 0 0 0-1.1 1.1v6.8a1.1 1.1 0 0 0 1.1 1.1h6.8a1.1 1.1 0 0 0 1.1-1.1v-.9m-3.9-11h6.8a1.1 1.1 0 0 1 1.1 1.1v6.8a1.1 1.1 0 0 1-1.1 1.1H6.6a1.1 1.1 0 0 1-1.1-1.1V2.6a1.1 1.1 0 0 1 1.1-1.1Z"/></svg>

<svg xmlns="http://www.w3.org/2000/svg" width="16" height="16" fill="none" viewBox="0 0 16 16"><path stroke="currentColor" stroke-linecap="round" stroke-linejoin="round" d="M7.5 1.5v-1M12.5 1.5v-1M15.5 8.5h-1M15.5 3.5h-1M5.5 8.5h-1M5.5 3.5h-1M7.5 11.5v-1M12.5 11.5v-1M13.4 1.5H6.6a1.1 1.1 0 0 0-1.1 1.1v6.8a1.1 1.1 0 0 0 1.1 1.1h6.8a1.1 1.1 0 0 0 1.1-1.1V2.6a1.1 1.1 0 0 0-1.1-1.1ZM1.5 12.5h-1M1.5 7.5h-1M3.5 15.5v-1M8.5 15.5v-1"/><path stroke="currentColor" stroke-linecap="round" stroke-linejoin="round" d="M3.5 5.5h-.9a1.1 1.1 0 0 0-1.1 1.1v6.8a1.1 1.1 0 0 0 1.1 1.1h6.8a1.1 1.1 0 0 0 1.1-1.1v-.9"/></svg>
